static/logos/pitch-wordmark-color.svg

<svg width="50" height="18" viewBox="0 0 50 18" fill="none" xmlns="http://www.w3.org/2000/svg">
<g clip-path="url(#clip0_1_1665)">
<path d="M33.9939 13.0848C33.5946 13.6582 33.0222 14.0886 32.3606 14.3131C31.6989 14.5376 30.9828 14.5444 30.317 14.3323C29.6512 14.1204 29.0709 13.7008 28.6609 13.1351C28.2508 12.5693 28.0327 11.8872 28.0384 11.1886C28.0441 10.4898 28.2734 9.81136 28.6927 9.25242C29.1119 8.69356 29.6991 8.28356 30.3683 8.0825C31.0374 7.88144 31.7534 7.89992 32.4112 8.13523C33.0691 8.37053 33.6343 8.8103 34.0242 9.39015L36.4416 7.96288C35.7377 6.85238 34.6925 6.00022 33.463 5.53437C32.2335 5.06852 30.8861 5.01413 29.623 5.37936C28.36 5.74458 27.2495 6.50973 26.4584 7.55987C25.6672 8.61 25.2381 9.88848 25.2356 11.2033C25.233 12.518 25.657 13.7982 26.444 14.8514C27.2309 15.9048 28.3384 16.6742 29.6 17.0445C30.8616 17.4147 32.2093 17.3656 33.4406 16.9046C34.6719 16.4436 35.7204 15.5956 36.4287 14.4879L33.9947 13.0848H33.9939ZM40.6545 0H37.85V16.8227H40.653V11.2152C40.653 10.3476 40.9976 9.51553 41.6111 8.90205C42.2246 8.28856 43.0566 7.94394 43.9242 7.94394C44.7918 7.94394 45.6238 8.28856 46.2373 8.90205C46.8508 9.51553 47.1954 10.3476 47.1954 11.2152V16.8227H49.9992V10.6697C49.9987 9.58742 49.6808 8.52909 49.0847 7.62576C48.4886 6.72245 47.6406 6.01391 46.6457 5.58792C45.6508 5.16192 44.5528 5.0372 43.4877 5.22923C42.4225 5.42125 41.4372 5.92157 40.6537 6.66818V0H40.6545ZM21.0287 0H18.225V13.0841C18.2248 13.8916 18.4572 14.682 18.8943 15.361C19.3314 16.04 19.9547 16.5787 20.6898 16.913C21.425 17.2471 22.2407 17.3626 23.0397 17.2456C23.8386 17.1286 24.587 16.784 25.1954 16.253L23.8409 13.9545C23.7097 14.1203 23.5428 14.2542 23.3525 14.3461C23.1623 14.4381 22.9537 14.4858 22.7424 14.4856H22.4303C22.0586 14.4854 21.7022 14.3377 21.4394 14.0749C21.1766 13.8121 21.0289 13.4558 21.0287 13.0841V8.41136H23.8318V5.60758H21.0287V0ZM14.956 0C14.5429 0 14.1467 0.164101 13.8547 0.456203C13.5625 0.748305 13.3984 1.14448 13.3984 1.55758C13.3984 1.97067 13.5625 2.36685 13.8547 2.65895C14.1467 2.95105 14.5429 3.11515 14.956 3.11515C15.3691 3.11515 15.7653 2.95105 16.0574 2.65895C16.3495 2.36685 16.5136 1.97067 16.5136 1.55758C16.5136 1.14448 16.3495 0.748305 16.0574 0.456203C15.7653 0.164101 15.3691 0 14.956 0ZM16.3575 16.8227V5.60758H13.5545V16.8227H16.3575Z" fill="black"/>
<path fill-rule="evenodd" clip-rule="evenodd" d="M0 16.8227H2.80303V13.5515H5.37349C6.26329 13.5515 7.14438 13.3763 7.96644 13.0358C8.78856 12.6952 9.53546 12.1961 10.1647 11.567C10.7939 10.9377 11.293 10.1908 11.6335 9.36871C11.974 8.54667 12.1492 7.66553 12.1492 6.77576C12.1492 5.88595 11.974 5.00486 11.6335 4.18279C11.293 3.36071 10.7939 2.61376 10.1647 1.98458C9.53546 1.35539 8.78856 0.856288 7.96644 0.515773C7.14438 0.17526 6.26329 -1.87512e-08 5.37349 0H0V16.8227ZM2.80303 2.80303H5.37349C6.42692 2.80303 7.4372 3.22151 8.18212 3.96639C8.92697 4.71128 9.34546 5.72157 9.34546 6.775C9.34546 7.82841 8.92697 8.83871 8.18212 9.58364C7.4372 10.3285 6.42692 10.747 5.37349 10.747H2.80379V2.80303H2.80303Z" fill="black"/>
</g>
<defs>
<clipPath id="clip0_1_1665">
<rect width="50" height="17.4242" fill="white"/>
</clipPath>
</defs>
</svg>

<svg xmlns="http://www.w3.org/2000/svg" width="177.778" height="64" fill="none" viewBox="0 0 50 18"><g fill="#000" clip-path="url(#a)"><path d="M33.994 13.085a3.271 3.271 0 1 1 .03-3.695l2.418-1.427a6.075 6.075 0 1 0-.013 6.525l-2.434-1.403h-.001ZM40.654 0H37.85v16.823h2.803v-5.608a3.271 3.271 0 1 1 6.542 0v5.608H50V10.67a5.531 5.531 0 0 0-9.345-4.002V0ZM21.03 0h-2.804v13.084a4.204 4.204 0 0 0 6.97 3.169l-1.354-2.299a1.398 1.398 0 0 1-1.099.532h-.312a1.402 1.402 0 0 1-1.401-1.402V8.411h2.803V5.608h-2.803V0Zm-6.073 0a1.557 1.557 0 1 0 0 3.114 1.557 1.557 0 0 0 0-3.114Zm1.402 16.823V5.608h-2.803v11.215h2.803Z"/><path fill-rule="evenodd" d="M0 16.823h2.803v-3.271h2.57A6.776 6.776 0 1 0 5.373 0H0v16.823Zm2.803-14.02h2.57a3.972 3.972 0 0 1 0 7.944h-2.57V2.803Z" clip-rule="evenodd"/></g><defs><clipPath id="a"><path fill="#fff" d="M0 0h50v17.424H0z"/></clipPath></defs></svg>
